src/assets/Devices/Legion Go Front.svg

<svg width="1761" height="773" viewBox="0 0 1761 773" fill="none" xmlns="http://www.w3.org/2000/svg">
<rect x="279.498" y="18.5195" width="1199.83" height="739.041" rx="29.5" stroke="white"/>
<rect x="327.652" y="43.1602" width="1104.29" height="689.758" rx="11.5" stroke="white"/>
<rect x="269.52" y="8" width="1220.6" height="760.08" rx="11.5" stroke="white"/>
<circle cx="1455.12" cy="416.049" r="9.5" stroke="white"/>
<path d="M1490.73 29.4405C1490.73 24.815 1490.73 21.3828 1491 18.7202C1491.26 16.063 1491.78 14.2367 1492.78 12.7965C1494.03 10.9874 1495.78 9.57591 1497.81 8.72966C1499.43 8.05597 1501.32 7.92923 1503.98 8.22869C1506.64 8.52875 1509.99 9.24772 1514.52 10.2174L1609.24 30.5274C1636.63 36.3987 1657.14 40.7961 1673.26 45.6866C1689.38 50.5749 1701.07 55.9454 1710.85 63.7433C1722.97 73.4144 1732.83 85.6157 1739.75 99.4944C1745.32 110.685 1748.12 123.249 1749.52 140.033C1750.92 156.823 1750.92 177.798 1750.92 205.804V561.857C1750.92 606.182 1750.91 628.192 1742.76 646.735C1737.69 658.253 1730.42 668.67 1721.36 677.398C1706.77 691.449 1686.11 699.051 1644.51 714.343L1517.18 761.144C1512.24 762.961 1508.56 764.309 1505.64 765.056C1502.73 765.803 1500.63 765.929 1498.82 765.365C1496.55 764.659 1494.55 763.266 1493.11 761.379C1491.95 759.873 1491.35 757.862 1491.04 754.866C1490.73 751.866 1490.73 747.956 1490.73 742.691V29.4405Z" stroke="white"/>
<path d="M1501.68 756.222V16.1988L1613.75 41.3375C1638.55 46.9018 1657.13 51.0689 1671.73 55.6415C1686.32 60.212 1696.91 65.177 1705.75 72.3183C1716.71 81.1787 1725.62 92.3111 1731.87 104.948C1736.9 115.133 1739.43 126.549 1740.7 141.79C1741.96 157.037 1741.96 176.075 1741.96 201.498V557.993C1741.96 600.934 1741.95 622.251 1734.06 640.212C1729.15 651.37 1722.11 661.461 1713.33 669.917C1699.2 683.53 1679.2 690.901 1638.9 705.729L1501.68 756.222Z" stroke="white"/>
<path d="M1751.33 285.06L1760.25 277.682V207.018C1760.25 147.541 1760.25 117.803 1748.29 93.9153C1740.89 79.1385 1730.34 66.1649 1717.38 55.9091C1696.43 39.3301 1667.31 33.2726 1609.08 21.1576L1515.36 1.65844C1514.23 1.4232 1513.17 1.20276 1512.18 1L1501.18 7.75739C1504.24 7.7024 1508.32 8.57591 1514.53 9.90773L1609.25 30.2177C1664.01 41.9568 1691.38 47.8263 1711.07 63.5316C1723.24 73.2482 1733.15 85.5068 1740.1 99.4506C1751.33 121.989 1751.33 149.987 1751.33 205.983V285.06Z" stroke="white"/>
<path d="M1751.42 437.811V285.061L1760.17 293.561V427.561L1751.42 437.811Z" stroke="white"/>
<circle cx="1571.6" cy="318.984" r="66.7766" stroke="white"/>
<circle cx="1571.75" cy="318.759" r="50.417" stroke="white" stroke-width="3"/>
<circle cx="1571.75" cy="318.758" r="45.7698" stroke="white"/>
<rect x="1507.37" y="417.727" width="160.419" height="160.419" rx="2.5" stroke="white" stroke-width="3"/>
<rect x="1501.71" y="412.07" width="171.733" height="171.733" rx="7.5" stroke="white"/>
<path d="M1583.75 62.7685L1570.97 59.4418L1551.67 78.6675L1532.37 97.8931L1535.65 110.685L1548.43 114.012L1587.03 75.5604L1583.75 62.7685Z" stroke="white"/>
<circle cx="1656.55" cy="121.126" r="26.0757" stroke="white" stroke-width="3"/>
<circle cx="1605.94" cy="171.212" r="26.0757" stroke="white" stroke-width="3"/>
<circle cx="1707.7" cy="172.14" r="26.0757" stroke="white" stroke-width="3"/>
<circle cx="1656.55" cy="223.042" r="26.0757" stroke="white" stroke-width="3"/>
<path d="M1595.3 184.506L1604 169.881H1604.83L1611.02 158.912H1615.67L1607.52 172.904H1606.73L1600.03 184.506H1595.3ZM1595.72 158.912L1601.05 158.93L1607.34 169.881H1607.39L1616.13 184.506H1610.77L1604.04 172.922H1603.98L1595.72 158.912Z" fill="white"/>
<path d="M1654.79 133.922V124.271L1646.42 108.328H1651.64L1656.57 117.961C1656.72 118.277 1656.86 118.576 1656.99 118.857C1657.12 119.127 1657.24 119.414 1657.36 119.719H1657.45C1657.56 119.414 1657.68 119.127 1657.8 118.857C1657.93 118.576 1658.07 118.277 1658.24 117.961L1663.18 108.328H1667.89L1659.59 124.166V133.922H1654.79Z" fill="white"/>
<path d="M1700.11 185.506V159.912H1709.28C1711.85 159.912 1713.82 160.463 1715.19 161.564C1716.57 162.654 1717.26 164.307 1717.26 166.521C1717.26 167.963 1716.94 169.152 1716.29 170.09C1715.66 171.027 1714.85 171.666 1713.87 172.006V172.076C1715.09 172.416 1716.08 173.107 1716.86 174.15C1717.64 175.182 1718.04 176.559 1718.04 178.281C1718.04 180.566 1717.29 182.342 1715.79 183.607C1714.3 184.873 1712.29 185.506 1709.76 185.506H1700.11ZM1704.78 182.113H1709.18C1710.58 182.113 1711.61 181.744 1712.27 181.006C1712.94 180.256 1713.27 179.248 1713.27 177.982C1713.27 176.717 1712.94 175.709 1712.27 174.959C1711.61 174.209 1710.58 173.834 1709.18 173.834H1704.78V182.113ZM1704.78 170.793H1708.72C1710.1 170.793 1711.1 170.465 1711.71 169.809C1712.33 169.152 1712.64 168.227 1712.64 167.031C1712.64 165.848 1712.33 164.945 1711.71 164.324C1711.1 163.703 1710.1 163.387 1708.72 163.375H1704.78V170.793Z" fill="white"/>
<path d="M1645.27 235.408L1654.09 209.744H1659.26L1668.08 235.408H1663.2L1657.13 216.828C1656.99 216.395 1656.87 216.002 1656.78 215.65C1656.69 215.287 1656.6 214.936 1656.52 214.596H1656.41C1656.34 214.936 1656.25 215.287 1656.15 215.65C1656.05 216.002 1655.94 216.395 1655.81 216.828L1649.84 235.408H1645.27ZM1649.85 229.502L1650.8 226.074H1662.32L1663.3 229.502H1649.85Z" fill="white"/>
<path d="M269.52 29.4884C269.52 24.8628 269.519 21.4306 269.255 18.7681C268.992 16.1109 268.47 14.2846 267.473 12.8443C266.219 11.0352 264.473 9.62376 262.441 8.77751C260.824 8.10382 258.929 7.97708 256.276 8.27654C253.617 8.5766 250.261 9.29557 245.738 10.2653L151.01 30.5753C123.626 36.4465 103.118 40.844 86.9942 45.7344C70.8776 50.6227 59.1792 55.9932 49.4063 63.7911C37.2857 73.4623 27.4232 85.6636 20.5079 99.5423C14.932 110.733 12.1333 123.297 10.7323 140.08C9.33072 156.871 9.33032 177.845 9.33032 205.852V561.905C9.33032 606.23 9.34055 628.24 17.495 646.783C22.5605 658.301 29.8297 668.718 38.8935 677.446C53.4845 691.497 74.1398 699.099 115.744 714.391L243.077 761.192C248.019 763.008 251.689 764.357 254.61 765.104C257.528 765.851 259.624 765.976 261.436 765.413C263.706 764.707 265.702 763.314 267.148 761.427C268.302 759.921 268.907 757.91 269.213 754.913C269.519 751.914 269.52 748.004 269.52 742.739V29.4884Z" stroke="white"/>
<path d="M258.576 756.27V16.2466L146.505 41.3853C121.698 46.9497 103.123 51.1167 88.5217 55.6894C73.9279 60.2598 63.3418 65.2248 54.5054 72.3661C43.5419 81.2266 34.63 92.3589 28.384 104.996C23.3498 115.181 20.8222 126.597 19.5567 141.838C18.2907 157.085 18.2903 176.122 18.2903 201.546V558.04C18.2903 600.981 18.3005 622.299 26.1966 640.26C31.1018 651.418 38.1412 661.509 46.9187 669.965C61.048 683.578 81.0509 690.949 121.35 705.777L258.576 756.27Z" stroke="white"/>
<circle cx="67.2766" cy="67.2766" r="66.7766" transform="matrix(-1 0 0 1 167.711 107.756)" stroke="white"/>
<circle cx="51.917" cy="51.917" r="50.417" transform="matrix(-1 0 0 1 152.193 122.891)" stroke="white" stroke-width="3"/>
<circle cx="46.2698" cy="46.2698" r="45.7698" transform="matrix(-1 0 0 1 146.547 128.537)" stroke="white"/>
<path d="M176.505 62.8173L189.285 59.4906L208.581 78.7163L227.878 97.942L224.598 110.734L211.818 114.061L173.225 75.6093L176.505 62.8173Z" stroke="white"/>
<path d="M147.127 487.834L153.833 476.457H181.072H208.311L215.017 487.834L208.311 499.21H153.833L147.127 487.834Z" stroke="white"/>
<path d="M147.127 572.324L153.833 560.947H181.072H208.311L215.017 572.324L208.311 583.701H153.833L147.127 572.324Z" stroke="white"/>
<path d="M9.83968 147.123L1.5 137.116C2.99701 119.287 5.98802 105.896 11.964 93.9642C19.365 79.1873 29.9172 66.2137 42.8767 55.9579C63.8264 39.379 92.9411 33.3214 151.171 21.2064L244.891 1.70727C246.022 1.47203 247.081 1.25159 248.076 1.04883L259.077 7.80622C256.012 7.75123 251.937 8.62473 245.726 9.95655L150.998 30.2665C96.246 42.0056 68.87 47.8751 49.187 63.5805C37.0095 73.297 27.1006 85.5556 20.1529 99.4995C13.7946 112.26 11.0363 126.771 9.83968 147.123Z" stroke="white"/>
<path d="M196.734 246.094C202.533 246.094 207.234 250.795 207.234 256.594V288.719C207.234 290.652 208.801 292.219 210.734 292.219H242.859C248.658 292.219 253.359 296.92 253.359 302.719V334.219C253.359 340.018 248.658 344.719 242.859 344.719H210.734C208.801 344.719 207.234 346.286 207.234 348.219V380.344C207.234 386.143 202.533 390.844 196.734 390.844H165.234C159.435 390.844 154.734 386.143 154.734 380.344V348.219C154.734 346.286 153.167 344.719 151.234 344.719H119.109C113.31 344.719 108.609 340.018 108.609 334.219V302.719C108.609 296.92 113.31 292.219 119.109 292.219H151.234C153.167 292.219 154.734 290.652 154.734 288.719V256.594C154.734 250.795 159.435 246.094 165.234 246.094H196.734Z" stroke="white"/>
<path d="M197.484 251.574C199.97 251.574 201.984 253.589 201.984 256.074V289.969C201.984 294.111 205.342 297.469 209.484 297.469H243.379C245.864 297.469 247.879 299.483 247.879 301.969V334.969C247.879 337.454 245.864 339.469 243.379 339.469H209.484C205.342 339.469 201.984 342.827 201.984 346.969V380.863C201.984 383.349 199.97 385.363 197.484 385.363H164.484C161.999 385.363 159.984 383.349 159.984 380.863V346.969C159.984 342.827 156.627 339.469 152.484 339.469H118.59C116.105 339.469 114.09 337.454 114.09 334.969V301.969C114.09 299.483 116.105 297.469 118.59 297.469H152.484C156.627 297.469 159.984 294.111 159.984 289.969V256.074C159.984 253.589 161.999 251.574 164.484 251.574H197.484Z" stroke="white" stroke-width="3"/>
<path d="M266.365 16.8027L272.266 16.8163C272.465 15.7465 272.743 15.004 273.101 14.3991C273.872 13.0942 274.961 12.0055 276.266 11.2338L274.743 8.65915L276.266 11.2338C277.139 10.7176 278.3 10.3659 280.348 10.1766C282.438 9.98346 285.137 9.98047 289.007 9.98047H1470.29C1474.16 9.98047 1476.86 9.98346 1478.95 10.1766C1481 10.3659 1482.16 10.7176 1483.03 11.2338C1484.34 12.0054 1485.43 13.0942 1486.2 14.3991C1486.75 15.3324 1487.11 16.5907 1487.29 18.9018L1493.27 18.9208C1493.51 16.1403 1493.98 14.6963 1494.67 13.7011C1495.65 12.2852 1497.01 11.1806 1498.6 10.5184C1499.65 10.0817 1501.05 9.91454 1503.53 10.1938C1506.03 10.4767 1509.25 11.1622 1513.82 12.1428L1608.55 32.4528C1635.97 38.3327 1656.36 42.7067 1672.36 47.5599C1688.32 52.4001 1699.69 57.6543 1709.12 65.1783C1720.95 74.6225 1730.58 86.5373 1737.34 100.09C1742.72 110.888 1745.47 123.103 1746.86 139.721C1748.25 156.384 1748.25 177.237 1748.25 205.285V561.338C1748.25 605.899 1748.19 627.264 1740.3 645.209C1735.36 656.429 1728.28 666.576 1719.46 675.078C1705.33 688.676 1685.3 696.104 1643.48 711.477L1516.14 758.279C1511.15 760.114 1507.62 761.407 1504.85 762.115C1502.1 762.819 1500.55 762.819 1499.39 762.459C1497.61 761.906 1496.05 760.816 1494.92 759.339C1494.19 758.391 1493.66 756.956 1493.37 754.202L1487.39 754.406C1487.26 757.848 1486.89 759.475 1486.2 760.641C1485.43 761.946 1484.34 763.035 1483.03 763.807C1482.16 764.323 1481 764.675 1478.95 764.864C1476.86 765.057 1474.16 765.06 1470.29 765.06H289.007C285.137 765.06 282.438 765.057 280.348 764.864C278.3 764.675 277.139 764.323 276.266 763.807C274.961 763.035 273.872 761.946 273.101 760.641C272.617 759.824 272.277 758.752 272.081 756.934L266.173 756.592C265.874 757.907 265.474 758.756 264.991 759.386C263.859 760.863 262.298 761.953 260.521 762.506C259.364 762.865 257.808 762.866 255.058 762.162C252.289 761.454 248.76 760.16 243.767 758.325L116.434 711.524C74.6086 696.151 54.5766 688.723 40.4555 675.125C31.6265 666.623 24.5456 656.476 19.6113 645.256C11.7195 627.311 11.6582 605.946 11.6582 561.385V205.332C11.6582 177.284 11.6606 156.431 13.0516 139.768C14.4388 123.15 17.1933 110.935 22.5734 100.137C29.3263 86.5842 38.9574 74.6694 50.7934 65.2252C60.2231 57.7011 71.5898 52.4469 87.5478 47.6067C103.549 42.7535 123.938 38.3796 151.362 32.4996L246.09 12.1896C250.663 11.2091 253.877 10.5236 256.384 10.2407C258.858 9.96141 260.26 10.1285 261.308 10.5652C262.898 11.2275 264.265 12.3321 265.245 13.748C265.725 14.4405 266.103 15.3578 266.365 16.8027Z" stroke="white" stroke-width="6"/>
<rect x="177.472" y="486.859" width="11.037" height="7.42558" stroke="white" stroke-width="1.58365"/>
<path fill-rule="evenodd" clip-rule="evenodd" d="M172.584 482.584H182.037V484.942H183.621V482.584V481H182.037H172.584H171V482.584V488.426V490.009H172.584H175.417V488.426H172.584V482.584Z" fill="white"/>
<path fill-rule="evenodd" clip-rule="evenodd" d="M172 566H187V567.714H172V566ZM172 571.143H187V572.857H172V571.143ZM187 576.286H172V578H187V576.286Z" fill="white"/>
</svg>

<svg width="1761" height="773" fill="none" xmlns="http://www.w3.org/2000/svg"><rect x="279.499" y="18.519" width="1199.83" height="739.041" rx="29.5" stroke="#fff"/><rect x="327.652" y="43.161" width="1104.29" height="689.758" rx="11.5" stroke="#fff"/><rect x="269.519" y="8" width="1220.6" height="760.08" rx="11.5" stroke="#fff"/><circle cx="1455.12" cy="416.048" r="9.5" stroke="#fff"/><path d="M1490.73 29.44c0-4.626 0-8.058.27-10.72.26-2.657.78-4.484 1.78-5.924 1.25-1.81 3-3.22 5.03-4.067 1.62-.674 3.51-.8 6.17-.5 2.66.3 6.01 1.018 10.54 1.988l94.72 20.31c27.39 5.871 47.9 10.269 64.02 15.16 16.12 4.887 27.81 10.258 37.59 18.056a106.569 106.569 0 0 1 28.9 35.75c5.57 11.191 8.37 23.756 9.77 40.539 1.4 16.791 1.4 37.765 1.4 65.772v356.052c0 44.326-.01 66.336-8.16 84.878a96.628 96.628 0 0 1-21.4 30.663c-14.59 14.051-35.25 21.654-76.85 36.946l-127.33 46.801c-4.94 1.816-8.62 3.164-11.54 3.912-2.91.746-5.01.872-6.82.309a11.47 11.47 0 0 1-5.71-3.987c-1.16-1.506-1.76-3.517-2.07-6.513-.31-2.999-.31-6.91-.31-12.174V29.44Z" stroke="#fff"/><path d="M1501.68 756.221V16.198l112.07 25.139c24.8 5.564 43.38 9.731 57.98 14.304 14.6 4.57 25.18 9.536 34.02 16.677a97.586 97.586 0 0 1 26.12 32.63c5.03 10.185 7.56 21.601 8.83 36.841 1.26 15.248 1.26 34.285 1.26 59.708v356.495c0 42.941-.01 64.259-7.9 82.22a93.573 93.573 0 0 1-20.73 29.705c-14.13 13.612-34.13 20.983-74.43 35.812l-137.22 50.492Z" stroke="#fff"/><path d="m1751.33 285.06 8.92-7.378v-70.664c0-59.477 0-89.215-11.96-113.103a112.976 112.976 0 0 0-30.91-38.006c-20.95-16.579-50.07-22.636-108.3-34.751l-93.72-19.5c-1.13-.235-2.19-.455-3.18-.658l-11 6.757c3.06-.055 7.14.819 13.35 2.15l94.73 20.31c54.75 11.74 82.12 17.61 101.81 33.315a107.107 107.107 0 0 1 29.03 35.919c11.23 22.538 11.23 50.536 11.23 106.532v79.077Zm.09 152.75V285.06l8.75 8.5v134l-8.75 10.25Z" stroke="#fff"/><circle cx="1571.6" cy="318.984" r="66.777" stroke="#fff"/><circle cx="1571.75" cy="318.759" r="50.417" stroke="#fff" stroke-width="3"/><circle cx="1571.76" cy="318.758" r="45.77" stroke="#fff"/><rect x="1507.37" y="417.727" width="160.419" height="160.419" rx="2.5" stroke="#fff" stroke-width="3"/><rect x="1501.71" y="412.07" width="171.733" height="171.733" rx="7.5" stroke="#fff"/><path d="m1583.75 62.769-12.78-3.327-19.3 19.226-19.3 19.226 3.28 12.792 12.78 3.326 38.6-38.451-3.28-12.792Z" stroke="#fff"/><circle cx="1656.55" cy="121.126" r="26.076" stroke="#fff" stroke-width="3"/><circle cx="1605.94" cy="171.212" r="26.076" stroke="#fff" stroke-width="3"/><circle cx="1707.7" cy="172.14" r="26.076" stroke="#fff" stroke-width="3"/><circle cx="1656.55" cy="223.042" r="26.076" stroke="#fff" stroke-width="3"/><path d="m1595.3 184.506 8.7-14.625h.83l6.19-10.969h4.65l-8.15 13.992h-.79l-6.7 11.602h-4.73Zm.42-25.594 5.33.018 6.29 10.951h.05l8.74 14.625h-5.36l-6.73-11.584h-.06l-8.26-14.01Zm59.07-24.99v-9.651l-8.37-15.943h5.22l4.93 9.633c.15.316.29.615.42.896.13.27.25.557.37.862h.09c.11-.305.23-.592.35-.862.13-.281.27-.58.44-.896l4.94-9.633h4.71l-8.3 15.838v9.756h-4.8Zm45.31 51.584v-25.594h9.18c2.57 0 4.54.551 5.91 1.652 1.38 1.09 2.07 2.743 2.07 4.957 0 1.442-.32 2.631-.97 3.569-.63.937-1.44 1.576-2.42 1.916v.07c1.22.34 2.21 1.031 2.99 2.074.78 1.032 1.17 2.409 1.17 4.131 0 2.285-.75 4.061-2.25 5.326-1.48 1.266-3.49 1.899-6.03 1.899h-9.65Zm4.68-3.393h4.39c1.41 0 2.44-.369 3.1-1.107.67-.75 1-1.758 1-3.024 0-1.265-.33-2.273-1-3.023-.66-.75-1.69-1.125-3.1-1.125h-4.39v8.279Zm0-11.32h3.94c1.38 0 2.38-.328 2.99-.984.62-.657.93-1.582.93-2.778 0-1.183-.31-2.086-.93-2.707-.61-.621-1.61-.937-2.99-.949h-3.94v7.418Zm-59.51 64.615 8.82-25.664h5.17l8.82 25.664h-4.88l-6.07-18.58a20.19 20.19 0 0 1-.35-1.178c-.09-.363-.18-.714-.26-1.054h-.11c-.07.34-.16.691-.26 1.054-.1.352-.21.745-.34 1.178l-5.97 18.58h-4.57Zm4.58-5.906.95-3.428h11.52l.98 3.428h-13.45Z" fill="#fff"/><path d="M269.519 29.488c0-4.625-.001-8.057-.265-10.72-.263-2.657-.785-4.483-1.782-5.924-1.254-1.809-3-3.22-5.032-4.066-1.617-.674-3.512-.8-6.165-.501-2.659.3-6.015 1.019-10.538 1.988l-94.728 20.31c-27.384 5.872-47.892 10.269-64.016 15.16-16.116 4.888-27.815 10.258-37.588 18.056a106.5 106.5 0 0 0-28.898 35.751c-5.576 11.191-8.375 23.755-9.776 40.538-1.401 16.791-1.402 37.765-1.402 65.772v356.053c0 44.325.01 66.335 8.165 84.878a96.504 96.504 0 0 0 21.398 30.663c14.591 14.051 35.247 21.653 76.851 36.945l127.333 46.801c4.942 1.816 8.612 3.165 11.533 3.912 2.918.747 5.014.872 6.826.309a11.5 11.5 0 0 0 5.712-3.986c1.154-1.506 1.759-3.517 2.065-6.514.306-2.999.307-6.909.307-12.174V29.489Z" stroke="#fff"/><path d="M258.577 756.27V16.247L146.505 41.385c-24.806 5.565-43.382 9.732-57.983 14.304-14.594 4.57-25.18 9.536-34.016 16.677a97.5 97.5 0 0 0-26.122 32.63c-5.034 10.185-7.561 21.601-8.827 36.842-1.266 15.247-1.266 34.284-1.266 59.708V558.04c0 42.941.01 64.259 7.906 82.22a93.492 93.492 0 0 0 20.722 29.705c14.13 13.613 34.132 20.984 74.432 35.812l137.226 50.493Z" stroke="#fff"/><circle cx="67.277" cy="67.277" r="66.777" transform="matrix(-1 0 0 1 167.712 107.756)" stroke="#fff"/><circle cx="51.917" cy="51.917" r="50.417" transform="matrix(-1 0 0 1 152.194 122.891)" stroke="#fff" stroke-width="3"/><circle cx="46.27" cy="46.27" r="45.77" transform="matrix(-1 0 0 1 146.547 128.537)" stroke="#fff"/><path d="m176.506 62.817 12.78-3.326 19.296 19.225 19.297 19.226-3.28 12.792-12.78 3.327-38.593-38.452 3.28-12.792Zm-29.379 425.016 6.706-11.376h54.478l6.706 11.376-6.706 11.377h-54.478l-6.706-11.377Zm0 84.49 6.706-11.376h54.478l6.706 11.376-6.706 11.377h-54.478l-6.706-11.377ZM9.84 147.123 1.5 137.115c1.497-17.828 4.488-31.22 10.464-43.151a113 113 0 0 1 30.913-38.006C63.827 39.378 92.94 33.32 151.17 21.206l93.72-19.5c1.131-.234 2.19-.455 3.185-.658l11.001 6.758c-3.065-.055-7.14.818-13.351 2.15l-94.728 20.31C96.246 42.006 68.87 47.875 49.187 63.58a106.999 106.999 0 0 0-29.034 35.919c-6.358 12.761-9.117 27.272-10.313 47.624Zm186.894 98.971c5.799 0 10.5 4.701 10.5 10.5v32.125a3.5 3.5 0 0 0 3.5 3.5h32.125c5.799 0 10.5 4.701 10.5 10.5v31.5c0 5.799-4.701 10.5-10.5 10.5h-32.125a3.5 3.5 0 0 0-3.5 3.5v32.125c0 5.799-4.701 10.5-10.5 10.5h-31.5c-5.799 0-10.5-4.701-10.5-10.5v-32.125a3.5 3.5 0 0 0-3.5-3.5h-32.125c-5.799 0-10.5-4.701-10.5-10.5v-31.5c0-5.799 4.701-10.5 10.5-10.5h32.125a3.5 3.5 0 0 0 3.5-3.5v-32.125c0-5.799 4.701-10.5 10.5-10.5h31.5Z" stroke="#fff"/><path d="M197.484 251.574a4.5 4.5 0 0 1 4.5 4.5v33.895a7.5 7.5 0 0 0 7.5 7.5h33.895a4.5 4.5 0 0 1 4.5 4.5v33a4.5 4.5 0 0 1-4.5 4.5h-33.895a7.5 7.5 0 0 0-7.5 7.5v33.894a4.5 4.5 0 0 1-4.5 4.5h-33a4.5 4.5 0 0 1-4.5-4.5v-33.894a7.5 7.5 0 0 0-7.5-7.5H118.59a4.5 4.5 0 0 1-4.5-4.5v-33a4.5 4.5 0 0 1 4.5-4.5h33.894a7.5 7.5 0 0 0 7.5-7.5v-33.895a4.5 4.5 0 0 1 4.5-4.5h33Z" stroke="#fff" stroke-width="3"/><path d="m266.366 16.803 5.901.013c.199-1.07.477-1.812.835-2.417a8.992 8.992 0 0 1 3.165-3.165l-1.523-2.575 1.523 2.575c.873-.516 2.034-.868 4.082-1.057 2.09-.194 4.789-.197 8.659-.197H1470.29c3.87 0 6.57.003 8.66.197 2.05.189 3.21.54 4.08 1.057a8.95 8.95 0 0 1 3.17 3.165c.55.933.91 2.192 1.09 4.503l5.98.019c.24-2.78.71-4.225 1.4-5.22a8.974 8.974 0 0 1 3.93-3.183c1.05-.436 2.45-.603 4.93-.324 2.5.283 5.72.968 10.29 1.949l94.73 20.31c27.42 5.88 47.81 10.254 63.81 15.107 15.96 4.84 27.33 10.094 36.76 17.618a104.039 104.039 0 0 1 28.22 34.912c5.38 10.798 8.13 23.013 9.52 39.631 1.39 16.663 1.39 37.516 1.39 65.564v356.053c0 44.561-.06 65.926-7.95 83.871a93.904 93.904 0 0 1-20.84 29.869c-14.12 13.598-34.16 21.026-75.98 36.399l-127.34 46.802c-4.99 1.835-8.52 3.128-11.29 3.836-2.75.704-4.3.704-5.46.344a8.98 8.98 0 0 1-4.47-3.12c-.73-.948-1.26-2.383-1.55-5.137l-5.98.204c-.13 3.442-.5 5.069-1.19 6.235a8.96 8.96 0 0 1-3.17 3.166c-.87.516-2.03.868-4.08 1.057-2.09.193-4.79.196-8.66.196H289.008c-3.87 0-6.569-.003-8.659-.196-2.048-.189-3.209-.541-4.082-1.057a8.996 8.996 0 0 1-3.165-3.166c-.484-.817-.824-1.889-1.02-3.707l-5.908-.342c-.299 1.315-.699 2.164-1.182 2.794a9.001 9.001 0 0 1-4.47 3.12c-1.157.359-2.713.36-5.464-.344-2.768-.708-6.297-2.002-11.29-3.837l-127.333-46.801c-41.825-15.373-61.857-22.801-75.978-36.399a94 94 0 0 1-20.845-29.869c-7.891-17.945-7.953-39.31-7.953-83.871V205.332c0-28.048.003-48.901 1.393-65.564 1.388-16.618 4.142-28.833 9.522-39.631a104.001 104.001 0 0 1 28.22-34.912c9.43-7.524 20.797-12.778 36.755-17.618 16.001-4.853 36.39-9.227 63.814-15.107l94.728-20.31c4.573-.98 7.787-1.666 10.294-1.95 2.474-.279 3.875-.111 4.924.325a8.994 8.994 0 0 1 3.937 3.183c.48.693.858 1.61 1.12 3.055Z" stroke="#fff" stroke-width="6"/></svg>
